X:5196
T:Polska efter Olof Johansson, N\"asteln
O:england
R:Polska
Q:148
N:"Hins polska"
M:3/4
L:1/8
A:N\"asteln, S.J\"amtland
K:Am
(c/|\
A>)B {B}c2 (ce) | ((3dBd) ((3cAc) B>(^G | \
A>)B {B}c2 (ce) | ((3dBd) ((3cAc) B>^G | \
A2 (a>^g) e2 | ((3dBd) ((3cAc) B>(^G | \
A>)B {B}c2 (ce) | ((3dBd) ((3cAc) B>(^G | \
A>)B {B}c2 (ce) | ((3dBd) ((3cAc) B>^G | \
A2 (a>^g) e2 | ((3dBd) ((3cAc) B>^G |\
"Fine"A2 A4 || \
K:G
B>e (e>^d) (ef) | {f}g2 ((3gag) fa | \
g>f eg ((3aga) | b2 B4-|B>e  (e>^d) (ef) | \
{f}g2 ((3gag) fa | g>f ((3e^de) (fd) |\
"Da C al Fine" e2 B3 :|


